X:1
T:Drummond Castle
C:Anonymous; arr. T. S. Macdonald
M:6/8
L:1/8
K:Am
%%staves { 1 2 }
V:1
E | ABA a3 | age g3 | c2 c edc | Bdg dBG |
    ABA a3 | age g3 | ege deg | edB A2 :|
|: B | c2 c cec | d2 d ded | c2 c edc | Bdg dBG |
    c2 c edc | deg a2 g | ege deg | edB A2 :|]
V:2
L:1/8
z | "0"A,3 A,3 | A,3 "0"G,3 | "3"C3 C3 | "0"G3 G3 |
    "0"A,3 A,3 | A,3 "0"G,3 | "3"C3 "0"D3 | "1"E3 "1"A,2 :|
|: z | "3"C3 C3 | "0"D3 D3 | "3"C3 C3 | "0"G3 G3 |
       "3"C3 C3 | "0"D3 "0"A3 | "3"C3 "0"D3 | "1"E3 "1"A,2 :|]


